X: 43
T:Tekeli EK 55 p35
M:6/8
L:1/8
Q:123
S:Ellis Knowles Manuscript 1847
R:Jig
O:Radcliffe England
B:Plain Brown Tune Book for other tunes
K:C
c2 c cBc|A2 c G3|GAB cde|f2 d B2 d|c2 c cBc|A2 c G3|GAB cde|fdB c3  :|!
c2 d e3|efe d2 c|{e} d2 c {e} d2 c|c2 e c2 e|c2 d e3|efe d2 c|d2 c d2 g|c3 
c3:|| 

